X: 280
T: Hag Purim
M: 2/4
L: 1/8
Z: 2009 John Chambers <jc:trillian.mit.edu>
K: Em
[| "Em"EA G2 | EA G2 | "Am"GA GA | "B7"GF "Em"E2 |
w:1.~Chag Pu-rim, chag Pu-rim, chag ga-dol la ye-hu-dim.
w:2.~Chag Pu-rim, chag Pu-rim, zeh el zeh shol-chim ma-not,
   "Am"EA A2 | EA A2  | EA "B7(D7)"GF | "Em(G)"G4 
w:1.~Ma-se-chot, ra-shan-im z'mi-rot, v'ri-ku-dim.
w:2.~Mach-ma-dim, mam-ta-kim, Tuni-fim mig-da-not.
| "Em(G)"BB/B/ AG | "Am"AA A2 | AA/A/ GE | "Em"GG G2 |
w:Ha-va-na-ri-sha rash rash rash, Ha-va-na-ri-sha rash rash rash,
   "Em"BB/B/ AG | "Am"AA A2 | EA "B7"GF | "Em"E4 |]
w:Ha-va-na-ri-sha rash rash rash, Bah ra-'a-sha-nim.
%
W:The festival of Purim, a great festival for the Jews.  Masks, noisemakers, songs and dancing.
W:    Let's make noise: Noise! Noise! Noise! (x3) with noisemakers.
W:The festival of Purim, we send one another gifts. Tasty foods, candy, pastries and confections.
W:    Let's make noise: Noise! Noise! Noise! (x3) with noisemakers.



